polaris-icons/icons/newicons/CheckoutMajor.svg

<svg width="20" height="20" viewBox="0 0 20 20" fill="none" xmlns="http://www.w3.org/2000/svg">
<path fill-rule="evenodd" clip-rule="evenodd" d="M3 3.75C3 3.33579 3.33579 3 3.75 3H5.75C6.1291 3 6.44859 3.2829 6.49448 3.65921L6.6004 4.52774L16.5357 5.00085C16.7466 5.01089 16.9436 5.10942 17.0781 5.27222C17.2127 5.43501 17.2723 5.64699 17.2425 5.85607L16.4925 11.1061C16.4397 11.4756 16.1232 11.75 15.75 11.75H7.48117L7.66409 13.25H15.25C15.6642 13.25 16 13.5858 16 14C16 14.4142 15.6642 14.75 15.25 14.75H7C6.6209 14.75 6.30141 14.4671 6.25552 14.0908L5.89107 11.1023C5.89011 11.0953 5.88924 11.0882 5.88848 11.0811L5.08591 4.5H3.75C3.33579 4.5 3 4.16421 3 3.75ZM7.29824 10.25H15.0995L15.641 6.45994L6.78461 6.03821L7.29824 10.25Z" fill="black"/>
<path d="M9 16.5C9 17.0523 8.55228 17.5 8 17.5C7.44772 17.5 7 17.0523 7 16.5C7 15.9477 7.44772 15.5 8 15.5C8.55228 15.5 9 15.9477 9 16.5Z" fill="black"/>
<path d="M14 17.5C14.5523 17.5 15 17.0523 15 16.5C15 15.9477 14.5523 15.5 14 15.5C13.4477 15.5 13 15.9477 13 16.5C13 17.0523 13.4477 17.5 14 17.5Z" fill="black"/>
</svg>

<svg viewBox="0 0 20 20" fill="none" xmlns="http://www.w3.org/2000/svg"><path fill-rule="evenodd" clip-rule="evenodd" d="M3 3.75a.75.75 0 0 1 .75-.75h2a.75.75 0 0 1 .744.66l.106.868 9.936.473a.75.75 0 0 1 .706.855l-.75 5.25a.75.75 0 0 1-.742.644h-8.269l.183 1.5h7.586a.75.75 0 0 1 0 1.5h-8.25a.75.75 0 0 1-.744-.66l-.365-2.988a.722.722 0 0 1-.003-.02l-.802-6.582h-1.336a.75.75 0 0 1-.75-.75Zm4.298 6.5h7.802l.541-3.79-8.856-.422.513 4.212Z" fill="#000"/><path d="M9 16.5a1 1 0 1 1-2 0 1 1 0 0 1 2 0Z" fill="#000"/><path d="M14 17.5a1 1 0 1 0 0-2 1 1 0 0 0 0 2Z" fill="#000"/></svg>
